!! 00000] TT[00
!! NN
!!!OTL: Haozi benlai shi lingqi
!!!ARE: Asia, China,ÿHubei, Junxian
!! Ethnic Group: Han
!! I, 463
!!!SCT: C0117
!!!YEM: Copyright 1995, estate of Helmut Schaffrath.
**kern
*ICvox
*Ivox
*M2/4
*k[]
*C:
{8a
8ee
=1
8dd
16dd
16cc
4g
=2
8cc
8g
4g}
=3
{16a
16cc
16a
16g
8e
16e
16d
=4
4cc
8r
16cc
16cc
=5
8g
8g
8cc
16cc
16a
=6
8a
8g
4g}
=7
{16a
16cc
16a
16g
8e
16e
16d
=8
4cc
8a
8ee
=9
16ee
16ee
16dd
16cc
4g
=10
16g
16cc
16a
16g
4g}
=11
{16a
16cc
16a
16g
8e
16e
16d
=12
4cc
16a
16cc
16a
16g
=13
4g
8cc
16dd
16cc
=14
8.a
16g
4g}
=15
{16a
16cc
16a
16g
8e
16e
16d
=16
4cc
4r}
==
!!!AGN: Haozi, Dahang haozi. Zhudi zaofang shi chang. Tongyi dong zuo
!! 1-3-5-1, Do-Mi-So-Do-Weise)
!!    In der Vorlage beginnt das Lied mit einem Auftakt,  6_+3_ ), der aber
!!    bei der Wiederholung des Liedes nicht beruecksichtigt wird.
!!    Wenig Verzierungen, einige Akzente.
!!!ONB: ESAC (Essen Associative Code) Database: CHINA
!!!AMT: simple duple
!!!AIN: vox
!!!EED: Helmut Schaffrath
!!!EEV: 1.0
*-
